X: 19308
T: Jack Broke Da Prison Door
R: reel
M: 4/4
K: Gmajor
|:G2BG BdBG|cBAB dBAB|G2BG BdBG|ABAG E2D2:|
|:g2gd edBd|g2gd eaaf|g2gd edBG|ABAG E2D2:|

